X:1
T:Isle of Wight, CM
T:Isle of Wight, CM
T:From Simon Browne’s A Sett of Tunes, ca.1720
T:Public Domain Courtesy of the Cyber Hymnal™
C:From Simon Browne’s A Sett of Tunes, ca.1720
Z:Public Domain
Z:Courtesy of the Cyber Hymnal™
%%score ( 1 2 ) ( 3 4 )
L:1/8
Q:1/4=140
M:4/4
K:Bb
V:1 treble 
V:2 treble 
V:3 bass 
V:4 bass 
V:1
 [DG]4 | ([Fd]2 [Ec]2) ([DB]2 [Fc]2) | [Gd]4 (f2 e2) | [Bd]4 [Ac]4 | !fermata![Gd]4 [Gd]4 | %5
 ([Af]2 [ce]2) ([Bd]2 [Ac]2) | [Gd]4 [FA]4 | !fermata![DG]4 [Gd]4 | [Gd]4 [Ac]4 | B4 [Ac]4 | %10
 [Gd]4 (f2 e2) | !fermata![^Fd]4 [Fd]4 | [GB]4 [Ac]4 | ([Bd]2 [Ac][GB]) [^FA]4 | !fermata!G4 |] %15
V:2
 x4 | x8 | x4 A4 | x8 | x8 | x8 | x8 | x8 | x8 | B4 x4 | x4 G4 | x8 | x8 | x8 | G4 |] %15
V:3
 G,4 | [D,B,]4 ([G,D]2 [F,C]2) | B,4 [F,A,]4 | [B,,G,]4 ^F,4 | !fermata!G,4 B,4 | %5
 [F,C]4 B,2 [A,C]2 | [G,D]4 [D,D]4 | !fermata![G,,D]4 B,4 | [G,B,]4 [F,C]4 | [B,,D]4 [F,C]4 | %10
 [G,B,]4 [C,C]4 | !fermata![D,D]4 B,4 | [G,D]4 [^F,C]4 | [G,B,]4 [D,D]4 | !fermata![G,,G,]4 |] %15
V:4
 G,4 | x8 | B,4 x4 | x4 ^F,4 | G,4 B,4 | x4 B,2 x2 | x8 | x4 B,4 | x8 | x8 | x8 | x4 B,4 | x8 | %13
 x8 | x4 |] %15

